picto/changing-table.svg

<svg class="color-immutable" width="24" height="24" viewBox="0 0 24 24" fill="none" xmlns="http://www.w3.org/2000/svg"><path d="M0 22.5V1.5C0 0.675 0.675 0 1.5 0H22.5C23.325 0 24 0.675 24 1.5V22.5C24 23.325 23.325 24 22.5 24H1.5C0.675 24 0 23.325 0 22.5Z" fill="#2D327D"/><path d="M10.406 16.368C10.732 16.042 11.164 15.86 11.625 15.853V15.069L7.85101 16.661C8.03101 16.94 8.12801 17.266 8.12901 17.606H9.89001C9.89301 17.138 10.075 16.699 10.406 16.368Z" fill="white"/><path d="M7.615 16.368C7.619 16.372 7.623 16.376 7.627 16.38L9.515 15.584L6.375 14.682V15.853C6.843 15.854 7.284 16.037 7.615 16.368Z" fill="white"/><path d="M11.625 14.694V14.118H6.375V14.322L10.022 15.37L11.625 14.694Z" fill="white"/><path d="M12.587 17.418H12.588L11.496 16.162C11.165 16.197 10.857 16.342 10.619 16.581C10.364 16.836 10.217 17.169 10.196 17.525L10.711 18.117H10.712L9.45598 19.614C9.16898 19.957 9.23098 20.483 9.59598 20.789C9.96098 21.095 10.49 21.066 10.777 20.723L12.638 18.506C12.899 18.193 12.869 17.73 12.587 17.418Z" fill="white"/><path d="M6.50498 16.162L5.41298 17.418H5.41398C5.13098 17.73 5.10198 18.193 5.36398 18.505L7.22498 20.722C7.51198 21.065 8.04098 21.094 8.40598 20.788C8.77098 20.482 8.83398 19.956 8.54598 19.613L7.28998 18.116H7.29098L7.80598 17.524C7.78498 17.167 7.63798 16.834 7.38298 16.58C7.14298 16.342 6.83598 16.196 6.50498 16.162Z" fill="white"/><path d="M14.25 10.175H11.25H6.75H3.75C3.336 10.175 3 10.511 3 10.925C3 11.339 3.336 11.675 3.75 11.675H6.75V13.78H11.25V11.675H14.25C14.664 11.675 15 11.339 15 10.925C15 10.511 14.664 10.175 14.25 10.175Z" fill="white"/><path d="M9 9.79999C10.2426 9.79999 11.25 8.79263 11.25 7.54999C11.25 6.30735 10.2426 5.29999 9 5.29999C7.75736 5.29999 6.75 6.30735 6.75 7.54999C6.75 8.79263 7.75736 9.79999 9 9.79999Z" fill="white"/></svg>

<svg class="color-immutable" width="24" height="24" viewBox="0 0 24 24" fill="none" xmlns="http://www.w3.org/2000/svg"><g clip-path="url(#a)"><path d="M0 22.5v-21C0 .675.675 0 1.5 0h21c.825 0 1.5.675 1.5 1.5v21c0 .825-.675 1.5-1.5 1.5h-21C.675 24 0 23.325 0 22.5Z" fill="#2D327D"/><path d="M10.406 16.368a1.75 1.75 0 0 1 1.219-.515v-.784l-3.774 1.592c.18.279.277.605.278.945H9.89c.003-.468.185-.907.516-1.238ZM7.615 16.368l.012.012 1.888-.796-3.14-.902v1.171c.468.001.909.184 1.24.515ZM11.625 14.694v-.576h-5.25v.204l3.647 1.048 1.603-.676Z" fill="#fff"/><path d="M12.587 17.418h.001l-1.092-1.256c-.331.035-.639.18-.877.419a1.447 1.447 0 0 0-.423.944l.515.592h.001l-1.256 1.497c-.287.343-.225.869.14 1.175.365.306.894.277 1.181-.066l1.861-2.217c.261-.313.231-.776-.051-1.088ZM6.505 16.162l-1.092 1.256h.001c-.283.312-.312.775-.05 1.087l1.861 2.217c.287.343.816.372 1.181.066.365-.306.428-.832.14-1.175L7.29 18.116h.001l.515-.592a1.453 1.453 0 0 0-1.301-1.362ZM14.25 10.175H3.75a.75.75 0 0 0 0 1.5h3v2.105h4.5v-2.105h3a.75.75 0 0 0 0-1.5ZM9 9.8a2.25 2.25 0 1 0 0-4.5 2.25 2.25 0 0 0 0 4.5Z" fill="#fff"/></g><defs><clipPath id="a"><path fill="#fff" d="M0 0h24v24H0z"/></clipPath></defs></svg>
